X:1
T:King Of The Road
T:King of the road
T:Roger Miller
C:Roger Miller
Z:All Rights Reserved
L:1/8
Q:1/4=60
M:4/4
K:C
V:1 treble 
%%MIDI program 4
V:1
"_Country Pop" z2"C" c2 G2 E2 |"F" D2 EF- F4 |"G7" z2 B2- BGAG |"C" C2 CC- C4 | z2 c2 G2 E2 | %5
w: Trail- er for|sale or rent *|rooms * to let *|fif- ty cents *|no phone no|
w: Third box car|mid- night train *|des- * tin- a- tion|Ban- gor Maine *|old worn out|
"F" D2 EF- F4 |"G7" z G G2 B2 c2 | d2 cB- BG A2 |"C" z2 c2 G2 E2 |"F" D2 EF- F2 FD | %10
w: pool no pets *|I aint got no|cig- a- rettes * ah but|~~two hours of|push- ing broom * buys an|
w: suit and shoes *|I dont pay no|un- ion dues * I smoke|old sto- gies|I have found * * *|
"G7" z2 B2- BGAG |"C" C2 CC- CE G2 |"C7" z2 e4 d2 |"F" c2 c2 cA- A2 |"G7" z4 dc B2 |1 %15
w: eight * by twelve *|four bit room * I'm a|man of|means by no means *|King of the|
w: short * but not too|big a- round * * *||||
"C" c4 z4!fine! :|2"C" c4 z c c2 || cc c2 cccB |"F" AcAF- F4 |"G7" BB B2 AG G2 |"C" Ac A2 G3 G | %21
w: road.|road I know|ev- e- ry en- gin- eer on|ev- e- ry train *|all of the chil- dren and|all of their names and|
w: ||||||
"C7" gg e2 d2 cA |"F" cA c2 A3 A |"G7" GGGG B2 BB | dddf- fe d2!D.C.! |] %25
w: ev- e- ry hand- out in|ev- e- ry town and|ev- ry lock that aint locked when|no- ones a- round * I sing|
w: ||||

